X:1
T:Building Solomon's Temple
M:6/8
L:1/8
K:G
B/2-A/2| GFE FGB| AGE E2G/2-A/2| BAG AGA| BGA B2 G/2A/2| BAG AGA| BAG A2B/2-A/2|\
 GFE FGB| AGE E2||
